X: 4536
T:Round the Horn
C:Jay Ungar
M:2/4
L:1/16
Z:posted by John Erdman 4/98
K:Edor
D|:"G"G2GA BAGA|Bd2ed4| "C"=cdef e2g2|"D"a6ga|
| "G"b2b2 "D" agfa| "Em"gfed "G"BAG2| "D"A2D2 "Bm"GAG2| "Em"E6:|
B|: "Em"e3f e2d2| "G"Bd2e d4| "Am"A3A G2A2| "Bm"Bd2e d4|
| "Em"g3a gfe2| "D"ded=c "G"BAGB| "D"A2d2 "Bm"BAG2| "Em"E6:|
